!!!!SEGMENT: Fss3006-Come_senza_costei_viver.krn
!!!id: Fss3006
!!!AGN: Frottola
!!!voices: 4
!!!COM: Sebastiano Festa
!!!OTL: Come senza costei viver
**kern	**kern	**kern	**kern
*part4	*part3	*part2	*part1
*staff4	*staff3	*staff2	*staff1
*I"Bassus	*I"Tenor	*I"Altus	*I"Superius
*I'B	*I'T	*I'A	*I'S
*clefF4	*clefGv2	*clefGv2	*clefG2
*k[]	*k[]	*k[]	*k[]
*C:	*C:	*C:	*C:
*M2/1	*M2/1	*M2/1	*M2/1
*met(C)	*met(C)	*met(C)	*met(C)
=1	=1	=1	=1
1C	1c	1G	1e
2FF	2A	2F	2f
2C	2c	2G	2e
=2	=2	=2	=2
2GG	2c	2G	2d
2GG	2B	2G	2d
2GG	2G	2D	2B
2GG	2B	2G	2d
=3	=3	=3	=3
2GG	2B	2G	2d
2C	2c	2G	2e
2FF	2A	1F	2c
2FF	2A	.	2c
=4	=4	=4	=4
1F	1A	2r	2c
.	.	2A	2d
1E	1G	2B	[1e
.	.	2B	.
=5	=5	=5	=5
1F	1A	1A	2e]
.	.	.	4d
.	.	.	4c
1F	1A	1D	2d
.	.	.	2e
=6	=6	=6	=6
2E	2B	2G	2e
2E	2B	2G	2e
1AA	2r	2r	2r
.	2A	2E	2c
=7	=7	=7	=7
2AA	2A	2E	2c
2AA	2A	2E	2c
2AA	2A	2E	2c
2AA	2A	2E	2c
=8	=8	=8	=8
1FF	1A	1F	1c
2F	2A	2A	2d
2E	2G	2B	[2e
=9	=9	=9	=9
1F	1A	1A	2e]
.	.	.	2d
2E	2B	2G	2e
2E	2B	2G	2e
=10	=10	=10	=10
1C	2r	1c	2r
.	2e	.	2g
2D	2.d	2A	2.f
2D	.	2A	.
.	4c	.	4e
=11	=11	=11	=11
2GG	2c	2G	2d
2GG	2B	2G	2d
1C	2c	1G	2.e
.	2G	.	.
.	.	.	4d
=12	=12	=12	=12
2C	2E	2r	4c
.	.	.	4B
2FF	2F	2A	1c
1GG	1D	2G	.
.	.	2G	2B
=13	=13	=13	=13
2C	1C	2E	2c
2C	.	2E	2c
2r	2r	2r	2r
2GG	2G	2D	2B
=14	=14	=14	=14
2GG	2G	2D	2B
2GG	2G	2D	2B
2AA	2E	2C	2c
2AA	2F	2C	2c
=15	=15	=15	=15
2GG	2G	2D	2B
2GG	2G	2D	2B
2r	2r	2r	2r
2GG	2G	2D	2B
=16	=16	=16	=16
2GG	2G	2D	2B
2GG	2G	2D	2B
2GG	2G	2D	2B
2GG	2B	2G	2d
=17	=17	=17	=17
0C	0c	0G	0e
=18	=18	=18	=18
1GG	4B	2r	1d
.	4A	.	.
.	4G	2B	.
.	4F	.	.
2AA	4E	2A	2c
.	4F	.	.
2GG	[2G	2d	2B
=19	=19	=19	=19
1D	2G]	1d	1A
.	2F#i	.	.
2GG	2G	2d	2B
2GG	2B	2d	2g
=20	=20	=20	=20
2C	2c	2e	2g
2C	2c	2e	2g
2C	2e	2c	2g
2C	2e	2c	2g
=21	=21	=21	=21
0F	0f	0c	0a
=22	=22	=22	=22
2C	2e	2c	2g
1D	1d	1A	1f
2G	2B	2G	2g
=23	=23	=23	=23
2C	2c	2G	2e
2C	2c	2G	2e
2r	2r	2r	2r
2C	2e	2c	2g
=24	=24	=24	=24
2F	2f	2c	2a
2F	2f	2c	2a
1C	2e	1c	2g
.	2e	.	2g
=25	=25	=25	=25
2C	2c	2G	2e
2C	2c	2G	2e
1C	2c	1G	2e
.	2c	.	2e
=26	=26	=26	=26
2C	2c	2G	2e
2C	2c	2G	2e
[1C	[1c	[1G	[1e
=27	=27	=27	=27
1C]	1c]	1G]	1e]
2D	2A	2d	2f
2E	2G	2c	[2g
=28	=28	=28	=28
1D	1A	1d	2g]
.	.	.	2f
2C	2e	2G	2g
2C	2e	2c	2g
=29	=29	=29	=29
0F	0f	0c	0a
=30	=30	=30	=30
2C	2e	2c	2g
2C	4d	2G	4f
.	4c	.	4e
2GG	2B	2G	2d
2GG	2B	2G	2d
=31	=31	=31	=31
2C	2c	2E	2c
2C	2c	2E	2c
2r	2r	2r	2r
2AA	2C	2E	2c
=32	=32	=32	=32
2GG	1D	2G	2B
2GG	.	2G	2B
1GG	2D	2G	2B
.	2E	2G	2B
=33	=33	=33	=33
0FF	1.F	0C	0A
.	2E	.	.
=34	=34	=34	=34
2GG	1D	2G	2B
2AA	.	2F	1c
1GG	1D	1G	.
.	.	.	2B
=35	=35	=35	=35
2.C	2.E	2G	2c
.	.	4c	4c
4C	4F	4c	4d
1C	1G	2c	2e
.	.	2c	2e
=36	=36	=36	=36
0F	0A	0c	0f
=37	=37	=37	=37
2C	2G	2c	2e
2D	2F	2A	2d
1AA	2E	1A	2c
.	4C	.	2c
.	4D	.	.
=38	=38	=38	=38
1AA	4E	2A	2c
.	4F	.	.
.	4G	2E	2c
.	4A	.	.
[1GG	2B	[1G	[1d
.	[2c	.	.
=39	=39	=39	=39
1GG]	2c]	1G]	1d]
.	2B	.	.
[1C	2c	[1E	2c
.	[2G	.	[2e
=40	=40	=40	=40
1C]	4G]	1E]	4e]
.	4F	.	4d
.	2E	.	4c
.	.	.	4B
1FF	[1F	2C	2A
.	.	[2c	[2f
=41	=41	=41	=41
1FF	2F]	4c]	4f]
.	.	4B	4e
.	2E	2A	4d
.	.	.	4c
[1GG	2D	[1G	2B
.	2C	.	[2c
=42	=42	=42	=42
1GG]	1D	1G]	2c]
.	.	.	2B
[1Cl	[1Cl	[1Gl	[1cl
=43	=43	=43	=43
00C]	00C]	00G]	00c]
==	==	==	==
*-	*-	*-	*-
!!!system-decoration: [*]
!!!RDF**kern: i = editorial accidental
!!!RDF**kern: l = terminal long
!!!ENC: Benjamin Ory
!!!END: 2024/10/3
!!!EED: Benjamin Ory
!!!EEV: 2024/10/03
!!!YEC: Copyright 2024 Benjamin Ory, All Rights Reserved
!!!ONB: Translated from MusicXML on 2024/10/03